public/assets/images/django.svg

<svg xmlns="http://www.w3.org/2000/svg" width="64" height="64" viewBox="0 0 48 48">
  <g fill-rule="evenodd">
    <path d="M8 16v12.644531C6.65625 28.898438 5.949219 29 4.878906 29 1.671875 28.996094 0 27.566406 0 24.816406c0-2.648437 1.769531-4.367187 4.515625-4.367187.425781 0 .75.03125 1.144531.132812V16zm-2.339844 6.671875c-.308594-.101563-.5625-.132813-.886718-.132813-1.328126 0-2.097657.808594-2.097657 2.226563 0 1.382813.734375 2.144531 2.082031 2.144531.289063 0 .523438-.015625.902344-.066406zm0 0"/>
    <path d="M12 20.046875v6.617187c0 2.074219-.15625 3.222657-.613281 4.082032-.425781.828125-.984375 1.351562-2.144531 1.925781l-2.4375-1.148437c1.160156-.539063 1.722656-1.015626 2.078124-1.742188.375-.742188.496094-1.753906.496094-4.015625v-5.722656H12zm0 0M9.378906 16H12v2.714844H9.378906zm0 0M13.734375 20.875c1.136719-.550781 2.222656-.792969 3.40625-.792969 1.324219 0 2.191406.363281 2.574219 1.070313.214844.398437.285156.914062.285156 2.023437v5.40625c-1.152344.171875-2.605469.292969-3.671875.292969-2.15625 0-3.125-.777344-3.125-2.503906 0-1.867188 1.285156-2.730469 4.441406-3.007813v-.582031c0-.484375-.234375-.660156-.882812-.660156-.949219 0-2.019531.277344-3.023438.8125zm4.027344 4.230469c-1.703125.171875-2.253907.449219-2.253907 1.140625 0 .519531.316407.761718 1.019532.761718.382812 0 .734375-.03125 1.234375-.117187zm0 0M21.417969 20.691406c1.519531-.417968 2.773437-.613281 4.042969-.613281 1.316406 0 2.269531.320313 2.835937.933594.53125.578125.703125 1.210937.703125 2.5625V28.875h-2.574219v-5.195312c0-1.035157-.335937-1.421876-1.25-1.421876-.351562 0-.671875.035157-1.1875.195313v6.425781h-2.570312zm0 0M30.175781 30.007812c.921875.484376 1.839844.707032 2.8125.707032 1.722657 0 2.453125-.472656 2.453125-2.175782v-.050781c-.507812.257813-1.023437.367188-1.703125.367188-2.300781 0-3.738281-1.546875-3.738281-4 0-3.042969 2.140625-4.761719 5.972656-4.761719 1.128906 0 2.167969.121094 3.429688.382812l-.898438 1.929688c-.699218-.136719-.058594-.019531-.585937-.070312v.277343l.035156 1.132813.015625 1.460937c.015625.363281.015625.730469.035156 1.09375v.730469c0 2.296875-.191406 3.132812-.75 4.019531C36.433594 32.355469 35.019531 33 33.007812 33c-1.027343 0-1.910156-.15625-2.832031-.523438zM35.390625 22.25h-.273437c-.511719-.015625-1.109376.121094-1.519532.382812-.625.367188-.953125 1.027344-.953125 1.964844 0 1.335938.652344 2.101563 1.808594 2.101563.359375 0 .648437-.066407.988281-.171875v-.921875c0-.316407-.015625-.664063-.015625-1.027344l-.019531-1.234375-.015625-.886719zm0 0M43.566406 20.046875C46.320312 20.046875 48 21.707031 48 24.394531c0 2.753907-1.753906 4.484375-4.542969 4.484375C40.699219 28.878906 39 27.21875 39 24.546875c.003906-2.773437 1.757812-4.5 4.566406-4.5zm-.058594 6.707031c1.058594 0 1.683594-.839844 1.683594-2.296875 0-1.4375-.609375-2.292969-1.664062-2.292969-1.09375 0-1.71875.839844-1.71875 2.292969 0 1.457031.628906 2.296875 1.699218 2.296875zm0 0"/>
  </g>
</svg>

<?xml version="1.0" encoding="UTF-8"?>
<svg xmlns="http://www.w3.org/2000/svg" xmlns:xlink="http://www.w3.org/1999/xlink" width="48pt" height="48pt" viewBox="0 0 48 48" version="1.1">
<g id="surface48966">
<path style=" stroke:none;fill-rule:evenodd;fill:rgb(0%,0%,0%);fill-opacity:1;" d="M 8 16 L 8 28.644531 C 6.65625 28.898438 5.949219 29 4.878906 29 C 1.671875 28.996094 0 27.566406 0 24.816406 C 0 22.167969 1.769531 20.449219 4.515625 20.449219 C 4.941406 20.449219 5.265625 20.480469 5.660156 20.582031 L 5.660156 16 Z M 5.660156 22.671875 C 5.351562 22.570312 5.097656 22.539062 4.773438 22.539062 C 3.445312 22.539062 2.675781 23.347656 2.675781 24.765625 C 2.675781 26.148438 3.410156 26.910156 4.757812 26.910156 C 5.046875 26.910156 5.28125 26.894531 5.660156 26.84375 Z M 5.660156 22.671875 "/>
<path style=" stroke:none;fill-rule:evenodd;fill:rgb(0%,0%,0%);fill-opacity:1;" d="M 12 20.046875 L 12 26.664062 C 12 28.738281 11.84375 29.886719 11.386719 30.746094 C 10.960938 31.574219 10.402344 32.097656 9.242188 32.671875 L 6.804688 31.523438 C 7.964844 30.984375 8.527344 30.507812 8.882812 29.78125 C 9.257812 29.039062 9.378906 28.027344 9.378906 25.765625 L 9.378906 20.042969 L 12 20.042969 Z M 12 20.046875 "/>
<path style=" stroke:none;fill-rule:evenodd;fill:rgb(0%,0%,0%);fill-opacity:1;" d="M 9.378906 16 L 12 16 L 12 18.714844 L 9.378906 18.714844 Z M 9.378906 16 "/>
<path style=" stroke:none;fill-rule:evenodd;fill:rgb(0%,0%,0%);fill-opacity:1;" d="M 13.734375 20.875 C 14.871094 20.324219 15.957031 20.082031 17.140625 20.082031 C 18.464844 20.082031 19.332031 20.445312 19.714844 21.152344 C 19.929688 21.550781 20 22.066406 20 23.175781 L 20 28.582031 C 18.847656 28.753906 17.394531 28.875 16.328125 28.875 C 14.171875 28.875 13.203125 28.097656 13.203125 26.371094 C 13.203125 24.503906 14.488281 23.640625 17.644531 23.363281 L 17.644531 22.78125 C 17.644531 22.296875 17.410156 22.121094 16.761719 22.121094 C 15.8125 22.121094 14.742188 22.398438 13.738281 22.933594 Z M 17.761719 25.105469 C 16.058594 25.277344 15.507812 25.554688 15.507812 26.246094 C 15.507812 26.765625 15.824219 27.007812 16.527344 27.007812 C 16.910156 27.007812 17.261719 26.976562 17.761719 26.890625 Z M 17.761719 25.105469 "/>
<path style=" stroke:none;fill-rule:evenodd;fill:rgb(0%,0%,0%);fill-opacity:1;" d="M 21.417969 20.691406 C 22.9375 20.273438 24.191406 20.078125 25.460938 20.078125 C 26.777344 20.078125 27.730469 20.398438 28.296875 21.011719 C 28.828125 21.589844 29 22.222656 29 23.574219 L 29 28.875 L 26.425781 28.875 L 26.425781 23.679688 C 26.425781 22.644531 26.089844 22.257812 25.175781 22.257812 C 24.824219 22.257812 24.503906 22.292969 23.988281 22.453125 L 23.988281 28.878906 L 21.417969 28.878906 Z M 21.417969 20.691406 "/>
<path style=" stroke:none;fill-rule:evenodd;fill:rgb(0%,0%,0%);fill-opacity:1;" d="M 30.175781 30.007812 C 31.097656 30.492188 32.015625 30.714844 32.988281 30.714844 C 34.710938 30.714844 35.441406 30.242188 35.441406 28.539062 L 35.441406 28.488281 C 34.933594 28.746094 34.417969 28.855469 33.738281 28.855469 C 31.4375 28.855469 30 27.308594 30 24.855469 C 30 21.8125 32.140625 20.09375 35.972656 20.09375 C 37.101562 20.09375 38.140625 20.214844 39.402344 20.476562 L 38.503906 22.40625 C 37.804688 22.269531 38.445312 22.386719 37.917969 22.335938 L 37.917969 22.613281 L 37.953125 23.746094 L 37.96875 25.207031 C 37.984375 25.570312 37.984375 25.9375 38.003906 26.300781 L 38.003906 27.03125 C 38.003906 29.328125 37.8125 30.164062 37.253906 31.050781 C 36.433594 32.355469 35.019531 33 33.007812 33 C 31.980469 33 31.097656 32.84375 30.175781 32.476562 Z M 35.390625 22.25 L 35.117188 22.25 C 34.605469 22.234375 34.007812 22.371094 33.597656 22.632812 C 32.972656 23 32.644531 23.660156 32.644531 24.597656 C 32.644531 25.933594 33.296875 26.699219 34.453125 26.699219 C 34.8125 26.699219 35.101562 26.632812 35.441406 26.527344 L 35.441406 25.605469 C 35.441406 25.289062 35.425781 24.941406 35.425781 24.578125 L 35.40625 23.34375 L 35.390625 22.457031 Z M 35.390625 22.25 "/>
<path style=" stroke:none;fill-rule:evenodd;fill:rgb(0%,0%,0%);fill-opacity:1;" d="M 43.566406 20.046875 C 46.320312 20.046875 48 21.707031 48 24.394531 C 48 27.148438 46.246094 28.878906 43.457031 28.878906 C 40.699219 28.878906 39 27.21875 39 24.546875 C 39.003906 21.773438 40.757812 20.046875 43.566406 20.046875 Z M 43.507812 26.753906 C 44.566406 26.753906 45.191406 25.914062 45.191406 24.457031 C 45.191406 23.019531 44.582031 22.164062 43.527344 22.164062 C 42.433594 22.164062 41.808594 23.003906 41.808594 24.457031 C 41.808594 25.914062 42.4375 26.753906 43.507812 26.753906 Z M 43.507812 26.753906 "/>
</g>
</svg>
